X:1
T:Title
%%score { 1 | 2 }
L:1/8
Q:1/4=106
M:4/4
K:Ab
V:1 treble nm="Grand Piano"
V:2 bass 
V:1
 [CE]2 [_C=D]2 [=CE]>[Ec] [EB]>[EA] | [=EG]>[GB] [FA]>[DF] [C_E]4 | %2
w: Chas.~H.~Gabriel * * * * *||
 [DF]>[FA] [EG]>[DF] [CE]2 [Ec]2 | [=DB]>[DF] [DB]>[Dc] [EB]4 | [Ec]2 [CA]2 [Fd]>[Ec] [EB]>[EA] | %5
w: |||
 [EG]>F =E>F [Fd]4 | c2 c>d c2 B2 | B4 [CA]4 | [EB]2 [Ge]2 [Ge]>[Fd] c>B | A2 A2 c4 | %10
w: |||||
 F>=E F>[_EG] [FA]>[FG] [FA]>[FB] | [=Ec]2 [Ec]2 [_Ed]4 | [Ec]2 [CA]2 [Fd]>[Ec] [EB]>[EA] | %13
w: |||
 [EG]>F =E>F [Fd]4 | c2 c>d c2 B2 | B4 [CA]4 |] %16
w: |||
V:2
 [A,,A,]2 [A,,A,]2 [A,,A,]>[A,,A,] [B,,G,]>[C,A,] | [D,D]>[D,D] [D,D]>[D,A,] [A,,A,]4 | %2
 [D,A,]>[D,A,] [D,A,]>[D,A,] [A,,A,]2 [A,,A,]2 | [B,,A,]>[B,,A,] [B,,A,]>[B,,A,] [E,G,]4 | %4
 [A,,A,]2 [A,,A,]2 [A,,A,]>[A,,A,] [B,,G,]>[C,A,] | [D,A,]>[D,A,D] [D,A,D]>[D,A,D] [D,A,]4 | %6
 [E,A,E]2 [E,A,E]>[E,B,E] [E,A,E]2 [E,G,D]2 | [E,G,D]4 [A,,A,]4 | %8
 [E,G,]2 [E,B,]2 [E,B,]>[E,B,] [E,G,E]>[E,G,D] | [A,C]2 [A,C]2 [A,E]4 | %10
 [D,A,D]>[D,G,D] [D,A,D]>[D,B,] [D,A,]>[D,B,] [D,A,]>[D,F,] | [C,G,]2 [C,G,]2 [B,,G,]4 | %12
 [A,,A,]2 [A,,A,]2 [A,,A,]>[A,,A,] [B,,G,]>[C,A,] | [D,A,]>[D,A,D] [D,A,D]>[D,A,D] [D,A,]4 | %14
 [E,A,E]2 [E,A,E]>[E,B,E] [E,A,E]2 [E,G,D]2 | [E,G,D]4 [A,,A,]4 |] %16

